public/primaries/Network.svg

<svg id="Layer_1" data-name="Layer 1" xmlns="http://www.w3.org/2000/svg" width="64" height="64" viewBox="0 0 64 64"><defs><style>.cls-1{fill-rule:evenodd}</style></defs><title>Icons 200</title><path class="cls-1" d="M54 34h-8v6h3a3 3 0 0 1 3 3v8a3 3 0 0 1-3 3H39a3 3 0 0 1-3-3v-8a3 3 0 0 1 3-3h3v-6H22v6h3a3 3 0 0 1 3 3v8a3 3 0 0 1-3 3H15a3 3 0 0 1-3-3v-8a3 3 0 0 1 3-3h3v-6h-8a2 2 0 1 1 0-4h20v-6h-3a3 3 0 0 1-3-3v-8a3 3 0 0 1 3-3h10a3 3 0 0 1 3 3v8a3 3 0 0 1-3 3h-3v6h20a2 2 0 1 1 0 4z"/></svg>

<svg id="Layer_1" data-name="Layer 1" xmlns="http://www.w3.org/2000/svg" width="64" height="64" viewBox="0 0 64 64">
  <defs>
    <style>
      .cls-1 {
        fill-rule: evenodd;
      }
    </style>
  </defs>
  <title>Icons 200</title>
  <path class="cls-1" d="M54,34H46v6h3a3,3,0,0,1,3,3v8a3,3,0,0,1-3,3H39a3,3,0,0,1-3-3V43a3,3,0,0,1,3-3h3V34H22v6h3a3,3,0,0,1,3,3v8a3,3,0,0,1-3,3H15a3,3,0,0,1-3-3V43a3,3,0,0,1,3-3h3V34H10a2,2,0,1,1,0-4H30V24H27a3,3,0,0,1-3-3V13a3,3,0,0,1,3-3H37a3,3,0,0,1,3,3v8a3,3,0,0,1-3,3H34v6H54A2,2,0,1,1,54,34Z"/>
</svg>
